outputs/icons/device/battery_charging_sharp.svg

<svg xmlns="http://www.w3.org/2000/svg" width="1200" height="1200" fill="none"><g clip-path="url(#a)"><path fill="#000" d="M900 200H700V100H500v100H300v900h600zm-350 800V725H450l200-375v275h100z"/></g><defs><clipPath id="a"><path fill="#fff" d="M0 0h1200v1200H0z"/></clipPath></defs></svg>

<svg width="1200" height="1200" viewBox="0 0 1200 1200" fill="none" xmlns="http://www.w3.org/2000/svg"><g clip-path="url(#clip0_133_61)"><path d="M900 200H700V100H500V200H300V1100H900V200ZM550 1000V725H450L650 350V625H750L550 1000Z" fill="#1D1E23"/></g><defs><clipPath id="clip0_133_61"><path width="24" fill="white" d="M0 0H1200V1200H0V0z"/></clipPath></defs></svg>
